X: 41
T:Seventy Second's Farewell
% Nottingham Music Database
S:via PR
M:4/4
L:1/4
K:D
c/2B/2|"D"Ad de/2f/2|g/2f/2e/2d/2 f2|"Em"gB Bc/2d/2|\
"A"e/2f/2e/2d/2 "A7"d/2c/2B/2A/2|
"D"Ad de/2f/2|"D"g/2f/2e/2d/2 f2|"Em"gB "A7"c/2d/2e/2c/2|"D"d3::
f/2g/2|"D"aA A=c|"G"BG "A7"A3/2B/2|"D"Ad d/2c/2d/2e/2|
"A"fe "A7"ef/2g/2|"D"aA A=c|"G"BG "A7"A3/2B/2|"D"Ad "A7"f/2e/2d/2c/2|"D"d3:|<end>
<start>
